apps/scalable/mscore.svg

<svg xmlns="http://www.w3.org/2000/svg" style="isolation:isolate" width="256" height="256"><defs><filter id="a" width="270.648" height="254.338" x="-7.32" y="2.95" filterUnits="userSpaceOnUse"><feGaussianBlur xmlns="http://www.w3.org/2000/svg" in="SourceGraphic" stdDeviation="4.294"/><feOffset xmlns="http://www.w3.org/2000/svg" dy="4" result="pf_100_offsetBlur"/><feFlood xmlns="http://www.w3.org/2000/svg" flood-opacity=".4"/><feComposite xmlns="http://www.w3.org/2000/svg" in2="pf_100_offsetBlur" operator="in" result="pf_100_dropShadow"/><feBlend xmlns="http://www.w3.org/2000/svg" in="SourceGraphic" in2="pf_100_dropShadow"/></filter></defs><path fill="#FEC589" d="M165.685 11.947c74.055 0 84.639 10.557 84.639 84.544v59.251c0 73.986-10.584 84.543-84.639 84.543h-75.37c-74.055 0-84.639-10.557-84.639-84.543V96.491c0-73.987 10.584-84.544 84.639-84.544h75.37z" filter="url(#a)"/><path fill="#FFF" d="M249.643 83.58L44.234 236.61c11.562 2.311 26.426 3.019 45.523 3.019h75.37c74.055 0 84.639-10.558 84.639-84.544V95.834c0-4.303-.041-8.37-.123-12.254z" opacity=".1"/><path fill="#FFF" d="M6.357 83.58l205.409 153.03c-11.562 2.311-26.426 3.019-45.523 3.019h-75.37c-74.055 0-84.639-10.558-84.639-84.544V95.834c0-4.303.041-8.37.123-12.254z" opacity=".1"/><defs><filter id="b" width="164.333" height="126.333" x="46.06" y="62.83" filterUnits="userSpaceOnUse"><feGaussianBlur xmlns="http://www.w3.org/2000/svg" stdDeviation="4.294"/></filter></defs><path fill-rule="evenodd" d="M173.79 72.833c-13.254 0-20.72 6.885-23.872 13.573-3.144 6.691-2.711 13.231-2.711 13.231l7.595-.441s-.228-4.853 1.99-9.555c2.21-4.709 6.136-9.213 16.998-9.213 10.861 0 14.787 4.504 16.997 9.213 2.218 4.702 1.99 9.555 1.99 9.555l7.595.441s.433-6.54-2.711-13.231c-3.152-6.688-10.618-13.573-23.871-13.573zm0 22.786a3.797 3.797 0 1 0-.002 7.594 3.797 3.797 0 0 0 .002-7.594zm-91.127 7.595c-13.25 0-20.718 6.889-23.868 13.572-3.151 6.692-2.715 13.231-2.715 13.231v49.148h7.595v-49.589s-.228-4.853 1.988-9.554c2.216-4.709 6.142-9.213 17-9.213 10.854 0 14.78 4.504 16.998 9.213 2.218 4.701 1.99 9.554 1.99 9.554v49.589h7.595v-49.589s-.228-4.853 1.99-9.554c2.21-4.709 6.137-9.213 16.998-9.213 10.853 0 14.78 4.504 16.998 9.213 2.218 4.701 1.99 9.554 1.99 9.554v.101l-.016 15.312v7.375s-.433 6.539 2.712 13.23c3.152 6.684 10.618 13.573 23.871 13.573 13.254 0 20.72-6.889 23.872-13.573 3.144-6.691 2.711-13.23 2.711-13.23v-49.148h-7.595v49.588s.228 4.853-1.99 9.555c-2.21 4.709-6.137 9.213-16.998 9.213s-14.788-4.504-16.998-9.213c-2.218-4.702-1.99-9.555-1.99-9.555v-7.815l.016-14.97s.433-6.54-2.712-13.231c-3.152-6.684-10.618-13.572-23.871-13.572-11.947 0-19.17 5.597-22.785 11.597-3.616-6-10.839-11.597-22.786-11.597v-.002z" opacity=".3" filter="url(#b)"/><path fill="#2B898F" fill-rule="evenodd" d="M173.79 72.833c-13.254 0-20.72 6.885-23.872 13.573-3.144 6.691-2.711 13.231-2.711 13.231l7.595-.441s-.228-4.853 1.99-9.555c2.21-4.709 6.136-9.213 16.998-9.213 10.861 0 14.787 4.504 16.997 9.213 2.218 4.702 1.99 9.555 1.99 9.555l7.595.441s.433-6.54-2.711-13.231c-3.152-6.688-10.618-13.573-23.871-13.573zm0 22.786a3.797 3.797 0 1 0-.002 7.594 3.797 3.797 0 0 0 .002-7.594zm-91.127 7.595c-13.25 0-20.718 6.889-23.868 13.572-3.151 6.692-2.715 13.231-2.715 13.231v49.148h7.595v-49.588s-.228-4.854 1.988-9.555c2.216-4.709 6.142-9.213 17-9.213 10.854 0 14.78 4.504 16.998 9.213 2.218 4.701 1.99 9.555 1.99 9.555v49.588h7.595v-49.588s-.228-4.854 1.99-9.555c2.21-4.709 6.137-9.213 16.998-9.213 10.853 0 14.78 4.504 16.998 9.213 2.218 4.701 1.99 9.555 1.99 9.555v.1l-.016 15.312v7.375s-.433 6.539 2.712 13.23c3.152 6.684 10.618 13.573 23.871 13.573 13.253 0 20.719-6.889 23.871-13.573 3.145-6.691 2.712-13.23 2.712-13.23v-49.148h-7.595v49.588s.228 4.853-1.99 9.555c-2.21 4.709-6.137 9.213-16.998 9.213s-14.788-4.504-16.998-9.213c-2.218-4.702-1.99-9.555-1.99-9.555v-7.815l.016-14.97s.433-6.54-2.712-13.231c-3.152-6.684-10.618-13.572-23.871-13.572-11.947 0-19.17 5.597-22.785 11.597-3.616-6-10.839-11.597-22.786-11.597v-.002z"/><g opacity=".4"><linearGradient id="c" x1=".517" x2=".517" y2="1"><stop offset="0%" stop-color="#fff"/><stop offset="12.5%" stop-opacity=".098" stop-color="#fff"/><stop offset="92.5%" stop-opacity=".098"/><stop offset="100%" stop-opacity=".498"/></linearGradient><path fill="none" stroke="url(#c)" stroke-linecap="round" stroke-linejoin="round" stroke-width="4.077" d="M165.685 11.947c74.055 0 84.639 10.557 84.639 84.544v59.251c0 73.986-10.584 84.543-84.639 84.543h-75.37c-74.055 0-84.639-10.557-84.639-84.543V96.491c0-73.987 10.584-84.544 84.639-84.544h75.37z" vector-effect="non-scaling-stroke"/></g></svg>

<svg xmlns="http://www.w3.org/2000/svg" style="isolation:isolate" width="256" height="256" viewBox="0 0 256 256">
 <defs>
  <filter id="sQXPJrGWIbfLb4WkMrO4Ba1ORq96ilzM" width="270.648" height="254.338" x="-7.32" y="2.95" filterUnits="userSpaceOnUse">
   <feGaussianBlur xmlns="http://www.w3.org/2000/svg" in="SourceGraphic" stdDeviation="4.294"/>
   <feOffset xmlns="http://www.w3.org/2000/svg" dx="0" dy="4" result="pf_100_offsetBlur"/>
   <feFlood xmlns="http://www.w3.org/2000/svg" flood-opacity=".4"/>
   <feComposite xmlns="http://www.w3.org/2000/svg" in2="pf_100_offsetBlur" operator="in" result="pf_100_dropShadow"/>
   <feBlend xmlns="http://www.w3.org/2000/svg" in="SourceGraphic" in2="pf_100_dropShadow" mode="normal"/>
  </filter>
 </defs>
 <g filter="url(#sQXPJrGWIbfLb4WkMrO4Ba1ORq96ilzM)">
  <path fill="#FEC589" d="M 165.685 11.947 C 239.74 11.947 250.324 22.504 250.324 96.491 L 250.324 155.742 C 250.324 229.728 239.74 240.285 165.685 240.285 L 90.315 240.285 C 16.26 240.285 5.676 229.728 5.676 155.742 L 5.676 96.491 C 5.676 22.504 16.26 11.947 90.315 11.947 L 165.685 11.947 Z"/>
 </g>
 <g opacity=".1">
  <path fill="#FFFFFF" d="M 249.643 83.58 L 44.234 236.61 C 55.796 238.921 70.66 239.629 89.757 239.629 L 165.127 239.629 C 239.182 239.629 249.766 229.071 249.766 155.085 L 249.766 95.834 C 249.766 91.531 249.725 87.464 249.643 83.58 L 249.643 83.58 Z"/>
 </g>
 <g opacity=".1">
  <path fill="#FFFFFF" d="M 6.357 83.58 L 211.766 236.61 C 200.204 238.921 185.34 239.629 166.243 239.629 L 90.873 239.629 C 16.818 239.629 6.234 229.071 6.234 155.085 L 6.234 95.834 C 6.234 91.531 6.275 87.464 6.357 83.58 L 6.357 83.58 Z"/>
 </g>
 <g>
  <defs>
   <filter id="7MnhecysPOryGkx8uyz7iadiwli4LxoU" width="164.333" height="126.333" x="46.06" y="62.83" filterUnits="userSpaceOnUse">
    <feGaussianBlur xmlns="http://www.w3.org/2000/svg" stdDeviation="4.294"/>
   </filter>
  </defs>
  <g opacity=".3" filter="url(#7MnhecysPOryGkx8uyz7iadiwli4LxoU)">
   <path fill-rule="evenodd" d="M 173.79 72.833 C 160.536 72.833 153.07 79.718 149.918 86.406 C 146.774 93.097 147.207 99.637 147.207 99.637 L 154.802 99.196 C 154.802 99.196 154.574 94.343 156.792 89.641 C 159.002 84.932 162.928 80.428 173.79 80.428 C 184.651 80.428 188.577 84.932 190.787 89.641 C 193.005 94.343 192.777 99.196 192.777 99.196 L 200.372 99.637 C 200.372 99.637 200.805 93.097 197.661 86.406 C 194.509 79.718 187.043 72.833 173.79 72.833 L 173.79 72.833 Z M 173.79 95.619 C 171.692 95.619 169.992 97.319 169.992 99.416 C 169.992 100.423 170.392 101.389 171.104 102.102 C 171.816 102.814 172.782 103.214 173.79 103.214 C 174.797 103.214 175.763 102.814 176.475 102.102 C 177.187 101.389 177.587 100.423 177.587 99.416 C 177.587 97.319 175.887 95.619 173.79 95.619 L 173.79 95.619 Z M 82.663 103.214 C 69.413 103.214 61.945 110.103 58.795 116.786 C 55.644 123.478 56.08 130.017 56.08 130.017 L 56.08 179.165 L 63.675 179.165 L 63.675 129.576 C 63.675 129.576 63.447 124.723 65.663 120.022 C 67.879 115.313 71.805 110.809 82.663 110.809 C 93.517 110.809 97.443 115.313 99.661 120.022 C 101.879 124.723 101.651 129.576 101.651 129.576 L 101.651 179.165 L 109.246 179.165 L 109.246 129.576 C 109.246 129.576 109.018 124.723 111.236 120.022 C 113.446 115.313 117.373 110.809 128.234 110.809 C 139.087 110.809 143.014 115.313 145.232 120.022 C 147.45 124.723 147.222 129.576 147.222 129.576 L 147.222 129.677 L 147.206 144.989 L 147.206 152.364 C 147.206 152.364 146.773 158.903 149.918 165.594 C 153.07 172.278 160.536 179.167 173.789 179.167 C 187.043 179.167 194.509 172.278 197.661 165.594 C 200.805 158.903 200.372 152.364 200.372 152.364 L 200.372 103.216 L 192.777 103.216 L 192.777 152.804 C 192.777 152.804 193.005 157.657 190.787 162.359 C 188.577 167.068 184.65 171.572 173.789 171.572 C 162.928 171.572 159.001 167.068 156.791 162.359 C 154.573 157.657 154.801 152.804 154.801 152.804 L 154.801 144.989 L 154.817 130.019 C 154.817 130.019 155.25 123.479 152.105 116.788 C 148.953 110.104 141.487 103.216 128.234 103.216 C 116.287 103.216 109.064 108.813 105.449 114.813 C 101.833 108.813 94.61 103.216 82.663 103.216 L 82.663 103.214 Z"/>
  </g>
  <path fill="#2B898F" fill-rule="evenodd" d="M 173.79 72.833 C 160.536 72.833 153.07 79.718 149.918 86.406 C 146.774 93.097 147.207 99.637 147.207 99.637 L 154.802 99.196 C 154.802 99.196 154.574 94.343 156.792 89.641 C 159.002 84.932 162.928 80.428 173.79 80.428 C 184.651 80.428 188.577 84.932 190.787 89.641 C 193.005 94.343 192.777 99.196 192.777 99.196 L 200.372 99.637 C 200.372 99.637 200.805 93.097 197.661 86.406 C 194.509 79.718 187.043 72.833 173.79 72.833 L 173.79 72.833 Z M 173.79 95.619 C 171.692 95.619 169.992 97.319 169.992 99.416 C 169.992 100.423 170.392 101.389 171.104 102.102 C 171.816 102.814 172.782 103.214 173.79 103.214 C 174.797 103.214 175.763 102.814 176.475 102.102 C 177.187 101.389 177.587 100.423 177.587 99.416 C 177.587 97.319 175.887 95.619 173.79 95.619 L 173.79 95.619 Z M 82.663 103.214 C 69.413 103.214 61.945 110.103 58.795 116.786 C 55.644 123.478 56.08 130.017 56.08 130.017 L 56.08 179.165 L 63.675 179.165 L 63.675 129.577 C 63.675 129.577 63.447 124.723 65.663 120.022 C 67.879 115.313 71.805 110.809 82.663 110.809 C 93.517 110.809 97.443 115.313 99.661 120.022 C 101.879 124.723 101.651 129.577 101.651 129.577 L 101.651 179.165 L 109.246 179.165 L 109.246 129.577 C 109.246 129.577 109.018 124.723 111.236 120.022 C 113.446 115.313 117.373 110.809 128.234 110.809 C 139.087 110.809 143.014 115.313 145.232 120.022 C 147.45 124.723 147.222 129.577 147.222 129.577 L 147.222 129.677 L 147.206 144.989 L 147.206 152.364 C 147.206 152.364 146.773 158.903 149.918 165.594 C 153.07 172.278 160.536 179.167 173.789 179.167 C 187.042 179.167 194.508 172.278 197.66 165.594 C 200.805 158.903 200.372 152.364 200.372 152.364 L 200.372 103.216 L 192.777 103.216 L 192.777 152.804 C 192.777 152.804 193.005 157.657 190.787 162.359 C 188.577 167.068 184.65 171.572 173.789 171.572 C 162.928 171.572 159.001 167.068 156.791 162.359 C 154.573 157.657 154.801 152.804 154.801 152.804 L 154.801 144.989 L 154.817 130.019 C 154.817 130.019 155.25 123.479 152.105 116.788 C 148.953 110.104 141.487 103.216 128.234 103.216 C 116.287 103.216 109.064 108.813 105.449 114.813 C 101.833 108.813 94.61 103.216 82.663 103.216 L 82.663 103.214 Z"/>
 </g>
 <g opacity=".4">
  <linearGradient id="_lgradient_160" x1=".517" x2=".517" y1="0" y2="1">
   <stop offset="0%" style="stop-color:rgb(255,255,255)"/>
   <stop offset="12.5%" stop-opacity=".098" style="stop-color:rgb(255,255,255)"/>
   <stop offset="92.5%" stop-opacity=".098" style="stop-color:rgb(0,0,0)"/>
   <stop offset="100%" stop-opacity=".498" style="stop-color:rgb(0,0,0)"/>
  </linearGradient>
  <path fill="none" stroke="url(#_lgradient_160)" stroke-linecap="round" stroke-linejoin="round" stroke-width="4.077" d="M 165.685 11.947 C 239.74 11.947 250.324 22.504 250.324 96.491 L 250.324 155.742 C 250.324 229.728 239.74 240.285 165.685 240.285 L 90.315 240.285 C 16.26 240.285 5.676 229.728 5.676 155.742 L 5.676 96.491 C 5.676 22.504 16.26 11.947 90.315 11.947 L 165.685 11.947 Z" vector-effect="non-scaling-stroke"/>
 </g>
</svg>
